packages/homepage/src/pages/company/images/framer.svg

<svg fill="none" height="97" viewBox="0 0 65 97" width="65" xmlns="http://www.w3.org/2000/svg"><g fill="#fff"><path d="m.0720215 64.5469h32.1714785v32.092z"/><path d="m.0720215 32.4531h32.1714785l32.1714 32.0921h-64.3428785z"/><path d="m.0720215.363281h64.3428785v32.092019h-32.1714z"/></g></svg>

<svg width="65" height="97" viewBox="0 0 65 97" fill="none" xmlns="http://www.w3.org/2000/svg">
<path d="M0.0720215 64.5469H32.2435V96.6389L0.0720215 64.5469Z" fill="white"/>
<path d="M0.0720215 32.4531H32.2435L64.4149 64.5452H0.0720215V32.4531Z" fill="white"/>
<path d="M0.0720215 0.363281H64.4149V32.4553H32.2435L0.0720215 0.363281Z" fill="white"/>
</svg>
